!!!!SEGMENT: pl-wtm--r-1664--014_stefani-jozef--okropnosc-czyli-nowa-lafarge-no-10-finalletto.krn
!!!cenid: 18xx:2069
!!!COM: Stefani, Józef
!!!COM-rismID: pe30024097
!!!CDT: 1800/04/16-1876/03/19
!!!CNT: Polish
!!!OPR: Okropność czyli Nowa Lafarge
!!!OTL: No. 10 - Finalletto
!!!OMV: 014
!!!PDT:
!!!AGN: Secular
!!!SMS-siglum: PL-Wtm
!!!SMS-shelfmark: R 1664
!!!SMS-shelfwork: 001-014 M
!!!SMS-variant:
!!!SMS-altvar:
!!!NIFC-rismSourceID: 1001114328
!!!NIFC-islandoraID: pl-wtm:27523
!!!URL-pdf-islandora: https://repozytorium.nifc.pl/islandora/object/pl-wtm%3A27523/datastream/PDF/view
!!!URL-scan: https://polish.musicsources.pl/pl/lokalizacje/galeria/rekopisy/6406 @EN{Scan on Polish Music Sources Website} @PL{Skany w portalu Dziedzictwo Muzyki Polskiej w otwartym dostępie}
!!!ONB-nifc: UWAGA: od skanu 0075
!!!OMD: Allegro.
!!!AIN: 1 cbass 1 cello 1 clars 1 cor 3 empty 1 fagot 1 flt 1 oboe 1 timpa 1 tromp 1 tromt 1 viola
!!!key:
**kern	**dynam	**kern	**dynam	**kern	**text	**kern	**dynam	**kern	**dynam	**kern	**dynam	**kern	**kern	**kern	**kern	**dynam	**kern	**dynam	**kern	**dynam	**kern	**kern	**dynam
*	*	*	*	*	*	*	*	*group1	*	*group1	*	*	*	*	*	*	*	*	*	*	*	*	*
*	*	*	*	*	*	*	*	*I""Violini	*	*I""Violini	*	*	*	*	*	*	*	*	*	*	*	*	*
*	*	*	*	*	*	*	*	*I''vli	*	*I''vli	*	*	*	*	*	*	*	*	*	*	*	*	*
*part14	*part14	*part13	*part13	*part12	*part12	*part11	*part11	*part10	*part10	*part9	*part9	*part8	*part7	*part6	*part5	*part5	*part4	*part4	*part3	*part3	*part2	*part1	*part1
*staff14	*	*staff13	*	*staff12	*staff12	*staff11	*	*staff10	*	*staff9	*	*staff8	*staff7	*staff6	*staff5	*	*staff4	*	*staff3	*	*staff2	*staff1	*
*Icbass	*	*Icello	*	*Iempty	*	*Iviola	*	*Iempty	*	*Iempty	*	*Itimpa	*Itromt	*Itromp	*Ifagot	*	*Icor	*	*Iclars	*	*Ioboe	*Iflt	*
*I"C:Baſsi	*	*I"Violoncello	*	*I"Müller	*	*I"Viole	*	*	*	*	*	*I"[Timpani]	*I"Trombone	*I"Trombe in C	*I"Fagoto	*	*I"Corni in G.	*	*I"in C Clarinetti	*	*I"Oboe	*I"Flauto	*
*I'cb	*	*I'vlc	*	*I'V	*	*I'vla	*	*	*	*	*	*I'timp	*I'trb	*I'tr in C	*I'fag	*	*I'cor in G	*	*I'cl in C	*	*I'ob	*I'fl	*
*clefF4	*	*clefF4	*	*clefG2	*	*clefC3	*	*clefG2	*	*clefG2	*	*clefF4	*clefF4	*clefG2	*clefF4	*	*clefG2	*	*clefG2	*	*clefG2	*clefG2	*
*ITrd0c0	*	*	*	*	*	*	*	*	*	*	*	*	*	*	*	*	*ITrd3c5	*	*	*	*	*	*
*k[f#]	*	*k[f#]	*	*k[f#]	*	*k[f#]	*	*k[f#]	*	*k[f#]	*	*k[f#]	*k[f#]	*k[f#]	*k[f#]	*	*k[f#]	*	*k[f#]	*	*k[f#]	*k[f#]	*
*G:	*	*G:	*	*G:	*	*G:	*	*G:	*	*G:	*	*G:	*G:	*G:	*G:	*	*G:	*	*G:	*	*G:	*G:	*
*M2/4	*	*M2/4	*	*M2/4	*	*M2/4	*	*M2/4	*	*M2/4	*	*M2/4	*M2/4	*M2/4	*M2/4	*	*M2/4	*	*M2/4	*	*M2/4	*M2/4	*
!	!	!	!	!	!	!	!	!	!	!	!	!	!	!	!	!	!	!	!	!	!	!LO:TX:a:t=No. 10. Finalletto.	!
4r	.	4r	.	4r	.	4r	.	4r	.	4r	.	4ryy	4r	4r	8D\L	.	8d/L	f	8dd\L	f	8dd\L	8dd'\L	f
.	.	.	.	.	.	.	.	.	.	.	.	.	.	.	8D\J	.	8d/J	.	8dd\J	.	8dd\J	8dd'\J	.
=1	=1	=1	=1	=1	=1	=1	=1	=1	=1	=1	=1	=1	=1	=1	=1	=1	=1	=1	=1	=1	=1	=1	=1
!	!	!	!	!	!	!	!	!	!	!	!	!	!	!	!	!	!	!	!	!	!LO:TX:a:t=Col Fl.	!	!
2r	.	2r	.	2r	.	2r	.	2r	.	2r	.	2ryy	2r	2r	8G\L	.	8gL 8B/	.	8ggL 8b\	.	8gg'\Lyy	8gg'\L	.
.	.	.	.	.	.	.	.	.	.	.	.	.	.	.	8G\J	.	8gJ 8B/	.	8ggJ 8b\	.	8gg'\Jyy	8gg'\J	.
.	.	.	.	.	.	.	.	.	.	.	.	.	.	.	8D\L	.	8aL 8d/	.	8ff#L 8dd\	.	8aa'\Lyy	8aa'\L	.
.	.	.	.	.	.	.	.	.	.	.	.	.	.	.	8D\J	.	8aJ 8d/	.	8ff#J 8dd\	.	8aa'\Jyy	8aa'\J	.
=2	=2	=2	=2	=2	=2	=2	=2	=2	=2	=2	=2	=2	=2	=2	=2	=2	=2	=2	=2	=2	=2	=2	=2
4r	.	4ryy	.	2r	.	4r	.	4r	.	4r	.	2ryy	4r	4r	8G\L	.	8bL 8g/	.	(8ggL 8b\	.	(yy8bb\Lyy	(8bb\L	.
.	.	.	.	.	.	.	.	.	.	.	.	.	.	.	8G\J	.	8gJ 8B/	.	8bJ 8g\)	.	8gg\J)yy	8gg\J)	.
!	!LO:DY:rj	!	!LO:DY:b:rj	!	!	!	!LO:DY:rj	!	!	!	!LO:DY:rj	!	!	!	!	!	!	!	!	!	!	!	!
8c\L	f	8c\Lyy	fyy	.	.	8c/L	f	8ccL 8e/	.	8ee\L	f	.	8C/L	8e/L	8C/L	.	8ccL 8a\	.	8eeL 8cc\	.	8ee'\Lyy	8ee'\L	.
8A\J	.	8A\Jyy	.	.	.	8A/J	.	8ccJ 8e/	.	8aaJ 8cc\	.	.	8AA/J	8a/J	8AA/J	.	8ccJ 8a\	.	8eeJ 8cc\	.	8aa'\Jyy	8aa'\J	.
=3	=3	=3	=3	=3	=3	=3	=3	=3	=3	=3	=3	=3	=3	=3	=3	=3	=3	=3	=3	=3	=3	=3	=3
*	*	*	*	*	*	*	*	*tremolo	*	*	*	*	*	*	*	*	*	*	*	*	*	*	*
!LO:TX:t=P:problem=mixed beam	!	!LO:TX:t=P:problem=mixed beam	!	!	!	!LO:TX:t=P:problem=mixed beam	!	!	!	!	!	!	!	!	!	!	!	!	!	!	!	!	!
8d\L	.	8d\Lyy	.	2r	.	8d\L	.	8bL 8d/	.	8dd\L	.	2ryy	4D\	8d/L	8D/L	.	8bL 8g\	.	8ddL 8b\	.	8dd\Lyy	8dd\L	.
8D/J	.	8D/Jyy	.	.	.	8D/	.	8bJ 8d/	.	8gg 8b\	.	.	.	8g/	8DD/	.	8b 8g\	.	8dd 8b\	.	8gg\yy	8gg\	.
!LO:TX:t=P:problem=mixed beam	!	!LO:TX:t=P:problem=mixed beam	!	!	!	!	!	!	!	!	!	!	!	!	!	!	!	!	!	!	!	!	!
8d\L	.	8d\Lyy	.	.	.	8d\	.	8ccL 8d/	.	8dd\	.	.	4D\	8d/	8D/	.	8a 8d\	.	8dd 8cc\	.	8dd\yy	8dd\	.
8D/J	.	8D/Jyy	.	.	.	8D/J	.	8ccJ 8d/	.	8ff#J 8a\	.	.	.	8f#/J	8DD/J	.	8aJ 8d\	.	8ddJ 8cc\	.	8ff#\Jyy	8ff#\J	.
*	*	*	*	*	*	*	*	*Xtremolo	*	*	*	*	*	*	*	*	*	*	*	*	*	*	*
=4	=4	=4	=4	=4	=4	=4	=4	=4	=4	=4	=4	=4	=4	=4	=4	=4	=4	=4	=4	=4	=4	=4	=4
2r;	.	2r;yy	.	2r;	.	2r;	.	2r;	.	2r;	.	2ryy	2r;	2r;	2r;	.	2r;	.	2r;	.	2r;	2r;	.
!!LO:PB:g=original
=5	=5	=5	=5	=5	=5	=5	=5	=5	=5	=5	=5	=5	=5	=5	=5	=5	=5	=5	=5	=5	=5	=5	=5
!	!	!	!	!	!	!	!	!	!	!	!LO:DY:rj	!	!	!	!	!	!	!	!	!	!	!	!
4r	.	4ryyyy	.	8d/	Tu	4r	.	4r	.	8d'/L	p	4ryy	4r	4r	4r	.	4r	.	4r	.	4r	4r	.
.	.	.	.	8d/	przed	.	.	.	.	8d'/J	.	.	.	.	.	.	.	.	.	.	.	.	.
=6	=6	=6	=6	=6	=6	=6	=6	=6	=6	=6	=6	=6	=6	=6	=6	=6	=6	=6	=6	=6	=6	=6	=6
!	!LO:DY:rj	!	!LO:DY:b:rj	!	!	!	!	!	!LO:DY:rj	!	!	!	!	!	!	!	!	!	!	!	!	!	!
8G\L	p	8G\Lyy	pyy	8g/	żo-	8B/L	.	8g/L	p	8g'/L	.	2ryy	2r	2r	2r	.	4g 4B/	.	2r	.	2r	2r	.
8G\J	.	8G\Jyy	.	8g/	-ną	8B/J	.	8g/J	.	8g'/J	.	.	.	.	.	.	.	.	.	.	.	.	.
8D\L	.	8D\Lyy	.	8a/	mo-	8d\L	.	8f#/L	.	8a'/L	.	.	.	.	.	.	4a 4d/	.	.	.	.	.	.
8D\J	.	8D\Jyy	.	8a/	-ją	8d\J	.	8f#/J	.	8a'/J	.	.	.	.	.	.	.	.	.	.	.	.	.
=7	=7	=7	=7	=7	=7	=7	=7	=7	=7	=7	=7	=7	=7	=7	=7	=7	=7	=7	=7	=7	=7	=7	=7
*	*	*	*	*	*	*	*	*	*	*	*	*	*	*	*	*	*^	*	*^	*	*	*	*
4G\	.	4G\yy	.	8b/	skry-	4G/	.	(8g/L	.	(8b/L	.	2ryy	2ryy	2ryy	2ryy	.	4b/	4g\	.	4r	2re	.	2r	4r	.
.	.	.	.	8g/	-cie	.	.	8B/J)	.	8g/J)	.	.	.	.	.	.	.	.	.	.	.	.	.	.	.
!	!	!	!	!	!	!	!	!	!	!	!	!	!	!	!	!	!	!	!	!	!	!	!	!	!LO:DY:rj
(8E'\L	.	(yy8E'\Lyy	.	8cc\	Choć	8e\L	.	(8g'/L	.	(8cc'\L	.	.	.	.	.	.	4r	4ryy	.	(<8cc'</L	.	.	.	(8ccc'\L	p
8D'\J)	.	8D'\J)yy	.	8b\	iuż	8d\J	.	8g'/J)	.	8b'\J)	.	.	.	.	.	.	.	.	.	8b'</J)	.	.	.	8bb'\J)	.
*	*	*	*	*	*	*	*	*	*	*	*	*	*	*	*	*	*v	*v	*	*	*	*	*	*	*
=8	=8	=8	=8	=8	=8	=8	=8	=8	=8	=8	=8	=8	=8	=8	=8	=8	=8	=8	=8	=8	=8	=8	=8	=8
(8C'/L	.	(yy8C'/Lyy	.	8a/	iej	8c/L	.	8e/L	.	(8a'/L	.	2ryy	2ryy	2ryy	2ryy	.	2r	.	(<8a'</L	2re	.	2r	(8aa'\L	.
8C#X'/	.	8C#X'/yy	.	8g/	zu-	8A/	.	8e/	.	8g'/	.	.	.	.	.	.	.	.	8g'</	.	.	.	8gg'\	.
8D'/	.	8D'/yy	.	8f#/	-peł-	8A/	.	8d/	.	8f#'/	.	.	.	.	.	.	.	.	8f#'</	.	.	.	8ff#'\	.
8AA'/J)	.	8AA'/J)yy	.	8e/	-nie	8AJ 8G/	.	8c#X/J	.	8e'/J)	.	.	.	.	.	.	.	.	8e'</J)	.	.	.	8ee'\J)	.
!!LO:PB:g=original
=9	=9	=9	=9	=9	=9	=9	=9	=9	=9	=9	=9	=9	=9	=9	=9	=9	=9	=9	=9	=9	=9	=9	=9	=9
(8AA/L	.	(yy8AA/Lyy	.	8e/	wie-	(8AL 8G/	.	(8c#X/L	.	(8e/L	.	2ryy	2r	2r	2r	.	2r	.	(<8e/L	2re	.	2r	(8ee\L	.
8D/J)	.	8D/J)yy	.	8d/	-rzę,	8AJ 8F#/)	.	8d/J)	.	8d/J)	.	.	.	.	.	.	.	.	8d/J)	.	.	.	8dd\J)	.
4r	.	4ryy	.	8d/	za-	4r	.	4r	.	8d'/L	.	.	.	.	.	.	.	.	4r	.	.	.	4r	.
.	.	.	.	8d/	-bez-	.	.	.	.	8d'/J	.	.	.	.	.	.	.	.	.	.	.	.	.	.
*	*	*	*	*	*	*	*	*	*	*	*	*	*	*	*	*	*	*	*v	*v	*	*	*	*
=10	=10	=10	=10	=10	=10	=10	=10	=10	=10	=10	=10	=10	=10	=10	=10	=10	=10	=10	=10	=10	=10	=10	=10
*tremolo	*	*tremolo	*	*	*	*tremolo	*	*tremolo	*	*tremolo	*	*	*	*	*	*	*	*	*	*	*	*	*
!	!	!	!	!	!	!	!	!	!	!	!	!	!	!	!	!	!	!LO:DY:rj	!	!	!	!	!
8G\L	.	8G\Lyy	.	8g/	-pie-	8B/L	.	8g/L	.	8g/L	.	2ryy	2ryy	2ryy	2r	.	4g 4B/	p	2r	.	2r	2r	.
8G\J	.	8G\Jyy	.	8g/	-czyć	8B/J	.	8g/J	.	8g/J	.	.	.	.	.	.	.	.	.	.	.	.	.
8D\L	.	8D\Lyy	.	8a/	chcę	8d\L	.	8f#/L	.	8a/L	.	.	.	.	.	.	4a 4d/	.	.	.	.	.	.
8D\J	.	8D\Jyy	.	8a/	me	8d\J	.	8f#/J	.	8a/J	.	.	.	.	.	.	.	.	.	.	.	.	.
*Xtremolo	*	*Xtremolo	*	*	*	*Xtremolo	*	*Xtremolo	*	*Xtremolo	*	*	*	*	*	*	*	*	*	*	*	*	*
=11	=11	=11	=11	=11	=11	=11	=11	=11	=11	=11	=11	=11	=11	=11	=11	=11	=11	=11	=11	=11	=11	=11	=11
4GG/	.	4GG/yy	.	8b/	ży-	4d\	.	(8g/L	.	(8b/L	.	2ryy	2ryy	2ryy	2r	.	(8bL 8g/	.	2r	.	2r	4r	.
.	.	.	.	8g/	-cie,	.	.	8B/J)	.	8g/J)	.	.	.	.	.	.	8gJ 8B/)	.	.	.	.	.	.
(4G^<\	.	(yy4G^<\yy	.	8g/	Trza	[4d^<\	.	(8B'^>/L	.	(8g'^>/L	.	.	.	.	.	.	4r	.	.	.	.	8gg'\L	.
.	.	.	.	8b/	prze-	.	.	8g'/J)	.	8b'/J)	.	.	.	.	.	.	.	.	.	.	.	8bb'\J	.
=12	=12	=12	=12	=12	=12	=12	=12	=12	=12	=12	=12	=12	=12	=12	=12	=12	=12	=12	=12	=12	=12	=12	=12
*	*	*	*	*	*	*	*	*	*	*	*	*	*	*	*	*	*	*	*^	*	*	*	*
8A\)	.	8A\)yy	.	8a/	-zor-	8d\]	.	8f#/	.	(8a'/L	.	2ryy	2ryy	2ryy	8r	.	8r	.	2rdd	8r	.	2r	8aa\L	.
8r	.	8ryy	.	8f#/	-nym	8r	.	8r	.	8f#'/J)	.	.	.	.	8A\	.	8a\	.	.	8f#\	.	.	8ff#\J	.
8AA/	.	8AA/yy	.	8e/	bydź	8c#X\	.	8e/	.	(8e'/L	.	.	.	.	8r	.	8r	.	.	8r	.	.	8ee\L	.
8r	.	8ryy	.	8a/	w tej	8r	.	8r	.	8a'/J)	.	.	.	.	8A\	.	8b 8g#X\	.	.	8g\	.	.	8aa\J	.
!!LO:PB:g=original
=13	=13	=13	=13	=13	=13	=13	=13	=13	=13	=13	=13	=13	=13	=13	=13	=13	=13	=13	=13	=13	=13	=13	=13	=13
*	*	*	*	*	*	*	*	*	*	*	*	*	*	*	*	*	*^	*	*	*	*	*	*	*
4D\	.	4D\yy	.	8a/	mie-	4d\	.	4f# 4A/	.	(8a/L	.	2ryy	4r	4r	8r	.	8r	8ryy	.	4rgg	8r	.	4r	(8aa\L	.
.	.	.	.	8d/	-rze,	.	.	.	.	8d/J)	.	.	.	.	8A\	.	8a/	8a\	.	.	8f#\	.	.	8dd\J)	.
!LO:TX:t=P:problem=fermata między drugą a trzecią ósemką w takcie	!	!	!	!LO:TX:t=P:problem=fermata między drugą a trzecią ósemką w takcie	!	!LO:TX:t=P:problem=fermata między drugą a trzecią ósemką w takcie	!	!LO:TX:t=P:problem=fermata między drugą a trzecią ósemką w takcie	!	!LO:TX:t=P:problem=fermata między drugą a trzecią ósemką w takcie	!	!	!LO:TX:t=P:problem=fermata między drugą a trzecią ósemką w takcie	!LO:TX:t=P:problem=fermata między drugą a trzecią ósemką w takcie	!LO:TX:t=P:problem=fermata między drugą a trzecią ósemką w takcie	!	!LO:TX:t=P:problem=fermata między drugą a trzecią ósemką w takcie	!	!	!LO:TX:t=P:problem=fermata między drugą a trzecią ósemką w takcie	!	!	!LO:TX:t=P:problem=fermata między drugą a trzecią ósemką w takcie	!	!
4r;	.	(8D'/L	.	8d;/	Lecz	(8d';\L	.	4r;	.	(8d';/L	.	.	4r;	4r;	4r;	.	4r;	4ryy	.	4rgg;	4r	.	4r;	4r;	.
.	.	8C#X'/J)	.	8e/	waz-	8c#X'\J)	.	.	.	8e'/J)	.	.	.	.	.	.	.	.	.	.	.	.	.	.	.
*	*	*	*	*	*	*	*	*	*	*	*	*	*	*	*	*	*v	*v	*	*	*	*	*	*	*
*	*	*	*	*	*	*	*	*	*	*	*	*	*	*	*	*	*	*	*v	*v	*	*	*	*
=14	=14	=14	=14	=14	=14	=14	=14	=14	=14	=14	=14	=14	=14	=14	=14	=14	=14	=14	=14	=14	=14	=14	=14
2r	.	(8Cn'/L	.	8f#/	-niej-	(8c'\L	.	(8d'/L	.	(8f#'/L	.	2ryy	2r	2r	2r	.	2r	.	2r	.	2r	2r	.
.	.	8BB'/)	.	8g/	-szą	8B'\)	.	8d'/)	.	8g'/)	.	.	.	.	.	.	.	.	.	.	.	.	.
.	.	(8AA'/	.	8a/	dla	(8d'\	.	(8f#'/	.	(8a'/	.	.	.	.	.	.	.	.	.	.	.	.	.
.	.	8GG'/J)	.	8b/	mnie	8d'\J)	.	8g'/J)	.	8b'/J)	.	.	.	.	.	.	.	.	.	.	.	.	.
!!LO:PB:g=original
=15	=15	=15	=15	=15	=15	=15	=15	=15	=15	=15	=15	=15	=15	=15	=15	=15	=15	=15	=15	=15	=15	=15	=15
2r	.	4FF#/	.	8cc\	spra-	4d\	.	4a/	.	(8cc/L	.	2ryy	2ryy	2ryy	2ryy	.	2ryy	.	2ryy	.	2r	4r	.
.	.	.	.	8a/	-wą	.	.	.	.	8a/J)	.	.	.	.	.	.	.	.	.	.	.	.	.
.	.	4r	.	8cc\	I	4r	.	4r	.	(8cc'/L	.	.	.	.	.	.	.	.	.	.	.	(8ccc'\L	.
.	.	.	.	8a/	to	.	.	.	.	8a'/J)	.	.	.	.	.	.	.	.	.	.	.	8aa'\J)	.
=16	=16	=16	=16	=16	=16	=16	=16	=16	=16	=16	=16	=16	=16	=16	=16	=16	=16	=16	=16	=16	=16	=16	=16
2r	.	8BB/L	.	8g/	ja-	8B/L	.	8d/L	.	8g/L	.	2ryy	2ryy	2ryy	2ryy	.	2ryy	.	2ryy	.	2r	8gg'\L	.
.	.	8C/	.	8f#/	-wnie	8c/	.	8d/	.	8f#/	.	.	.	.	.	.	.	.	.	.	.	8ff#'\	.
.	.	8BB/	.	8g/	iuż	8B/	.	8d/	.	8g/	.	.	.	.	.	.	.	.	.	.	.	8gg'\	.
.	.	8GG/J	.	8b/	wy-	8G/J	.	8g/J	.	8b/J	.	.	.	.	.	.	.	.	.	.	.	8bb'\J	.
!!LO:PB:g=original
=17	=17	=17	=17	=17	=17	=17	=17	=17	=17	=17	=17	=17	=17	=17	=17	=17	=17	=17	=17	=17	=17	=17	=17
*2\right	*	*2\right	*	*2\right	*	*2\right	*	*	*	*2\right	*	*	*	*	*	*	*	*	*	*	*	*	*
!	!	!	!	!	!	!	!	!	!	!	!	!	!	!	!	!	!	!LO:DY:a	!	!	!	!	!
2D\	.	2D\yy	.	2b\	-mie-	[2d\	.	(2g/	.	(2b\	.	2ryy	2r	2r	2r	.	8r	mf	2r	.	2r	2r	.
.	.	.	.	.	.	.	.	.	.	.	.	.	.	.	.	.	16dLL 16D/	.	.	.	.	.	.
.	.	.	.	.	.	.	.	.	.	.	.	.	.	.	.	.	16dJJ 16D/	.	.	.	.	.	.
.	.	.	.	.	.	.	.	.	.	.	.	.	.	.	.	.	8dL 8D/	.	.	.	.	.	.
.	.	.	.	.	.	.	.	.	.	.	.	.	.	.	.	.	16dL 16D/	.	.	.	.	.	.
.	.	.	.	.	.	.	.	.	.	.	.	.	.	.	.	.	16dJJ 16D/	.	.	.	.	.	.
=18	=18	=18	=18	=18	=18	=18	=18	=18	=18	=18	=18	=18	=18	=18	=18	=18	=18	=18	=18	=18	=18	=18	=18
4D;\	.	4D;\yy	.	4a;\	-nię,	4d;\]	.	4f#;/)	.	4a;\)	.	2ryy	2ryy	2ryy	2ryy	.	4d 4D;/	.	4r;	.	4r;	4r;	.
4r	.	4ryy	.	8d/	Za-	4r	.	4r	.	8d/L	.	.	.	.	.	.	4r	.	4r	.	4r	4r	.
.	.	.	.	8d/	-bez-	.	.	.	.	8d/J	.	.	.	.	.	.	.	.	.	.	.	.	.
=19	=19	=19	=19	=19	=19	=19	=19	=19	=19	=19	=19	=19	=19	=19	=19	=19	=19	=19	=19	=19	=19	=19	=19
!	!	!	!	!	!	!	!	!	!	!	!	!	!	!	!	!	!	!LO:DY:rj	!	!	!	!	!
8G\L	.	8G\Lyy	.	8g/	-pie-	8B/L	.	8g/L	.	8g/L	.	2ryy	2ryy	2ryy	2ryy	.	4g 4B/	p	2r	.	2r	2r	.
8G\J	.	8G\Jyy	.	8g/	-czyć	8B/J	.	8g/J	.	8g/J	.	.	.	.	.	.	.	.	.	.	.	.	.
8D\L	.	8D\Lyy	.	8a/	sp-	8d\L	.	8f#/L	.	8a/L	.	.	.	.	.	.	4a 4d/	.	.	.	.	.	.
8D\J	.	8D\Jyy	.	8a/	-bie	8d\J	.	8f#/J	.	8a/J	.	.	.	.	.	.	.	.	.	.	.	.	.
=20	=20	=20	=20	=20	=20	=20	=20	=20	=20	=20	=20	=20	=20	=20	=20	=20	=20	=20	=20	=20	=20	=20	=20
4GG/	.	4GG/yy	.	8b/	bra-	4d\	.	(8g/L	.	(8b/L	.	2ryy	2ryy	2ryy	2ryy	.	(8bL 8g/	.	2r	.	2r	4r	.
.	.	.	.	8g/	-wo	.	.	8B/J)	.	8g/J)	.	.	.	.	.	.	8gJ 8B/)	.	.	.	.	.	.
8C/	.	8C/yy	.	8e/	któ-	8r	.	8r	.	8e'/L	.	.	.	.	.	.	4r	.	.	.	.	8ee\L	.
8r	.	8ryy	.	8cc\	-re	8e 8c\	.	8a 8c/	.	8cc'/J	.	.	.	.	.	.	.	.	.	.	.	8ccc\J	.
!!LO:PB:g=original
=21	=21	=21	=21	=21	=21	=21	=21	=21	=21	=21	=21	=21	=21	=21	=21	=21	=21	=21	=21	=21	=21	=21	=21
8D\	.	8D\yy	.	8b/	ja	8r	.	8r	.	8b/L	.	2ryy	2r	2r	2r	.	2r	.	2r	.	2r	8bb'\L	.
8r	.	8ryy	.	8g/	nad	8d\	.	8g 8B/	.	8g/J	.	.	.	.	.	.	.	.	.	.	.	8gg'\J	.
8D\	.	8D\yy	.	8dd\	ży-	8r	.	8r	.	8dd/L	.	.	.	.	.	.	.	.	.	.	.	8ddd'\L	.
8r	.	8ryy	.	8f#/	-cie	8d 8A\	.	8f# 8c/	.	8f#/J	.	.	.	.	.	.	.	.	.	.	.	8ff#'\J	.
=22	=22	=22	=22	=22	=22	=22	=22	=22	=22	=22	=22	=22	=22	=22	=22	=22	=22	=22	=22	=22	=22	=22	=22
!LO:TX:t=P:problem=mixed beam	!	!LO:TX:t=P:problem=mixed beam	!	!	!	!	!	!	!	!	!	!	!	!	!	!	!	!	!	!	!	!	!
8GG/L	.	8GG/Lyy	.	8a/	ce-	8r	.	8r	.	(8a/L	.	2ryy	2r	2r	4r	.	4r	.	4r	.	4r	(8aa\L	.
8G\J	.	8G\Jyy	.	8g/	-nię,	8d 8G\	.	8g 8B/	.	8g/J)	.	.	.	.	.	.	.	.	.	.	.	8gg\J)	.
!	!	!	!	!LO:TX:a:t=/&colon;razem wszyscy&colon;/	!	!	!	!	!LO:DY:rj	!	!LO:DY:rj	!	!	!	!	!LO:DY:rj	!	!	!	!LO:DY:rj	!	!	!LO:DY:rj
4r	.	4ryy	.	8d/	Do	8d\L	.	8d/L	f	8d/L	f	.	.	.	8D\L	f	8d/L	.	8dd\L	f	8dd\L	8dd'\L	f
.	.	.	.	8d/	łask	8d\J	.	8d/J	.	8d/J	.	.	.	.	8D\J	.	8d/J	.	8dd\J	.	8dd\J	8dd'\J	.
=23	=23	=23	=23	=23	=23	=23	=23	=23	=23	=23	=23	=23	=23	=23	=23	=23	=23	=23	=23	=23	=23	=23	=23
*tremolo	*	*tremolo	*	*	*	*tremolo	*	*tremolo	*	*tremolo	*	*	*	*tremolo	*tremolo	*	*tremolo	*	*tremolo	*	*tremolo	*tremolo	*
!	!LO:DY:rj	!	!LO:DY:b:rj	!	!	!	!	!	!	!	!	!	!	!	!	!	!	!	!	!	!	!LO:TX:a:t=..	!
8G\L	f	8G\Lyy	fyy	8g/	wa-	8B/L	.	8g/L	.	8g/L	.	2ryy	4G\	8g/L	8G\L	.	8gL 8B/	.	8ggL 8b\	.	8gg\L	8gg'\L	.
8G\J	.	8G\Jyy	.	8g/	-szych	8B/J	.	8g/J	.	8g/J	.	.	.	8g/J	8G\J	.	8gJ 8B/	.	8ggJ 8b\	.	8gg\J	8gg'\J	.
!	!	!	!	!	!	!	!	!	!	!	!	!	!	!	!	!	!	!	!	!	!	!LO:TX:a:t=..	!
8D\L	.	8D\Lyy	.	8a/	zie-	8d\L	.	8f#/L	.	8a/L	.	.	4D\	8f#/L	8D\L	.	8aL 8d/	.	8ff#L 8dd\	.	8ff#\L	8aa'\L	.
8D\J	.	8D\Jyy	.	8a/	-dnać	8d\J	.	8f#/J	.	8a/J	.	.	.	8f#/J	8D\J	.	8aJ 8d/	.	8ff#J 8dd\	.	8ff#\J	8aa'\J	.
*Xtremolo	*	*Xtremolo	*	*	*	*Xtremolo	*	*Xtremolo	*	*Xtremolo	*	*	*	*Xtremolo	*Xtremolo	*	*Xtremolo	*	*Xtremolo	*	*Xtremolo	*Xtremolo	*
=24	=24	=24	=24	=24	=24	=24	=24	=24	=24	=24	=24	=24	=24	=24	=24	=24	=24	=24	=24	=24	=24	=24	=24
*	*	*	*	*	*	*	*	*	*	*	*	*	*	*	*	*	*^	*	*	*	*	*	*
4GG/	.	4GG/yy	.	8b/	bra-	4d 4G\	.	(8g/L	.	(8b/L	.	2ryy	4GG/	4g/	4G\	.	4b/	4g\	.	4gg 4b\	.	4gg\	(8bb\L	.
.	.	.	.	8g/	-wo	.	.	8B/J)	.	8g/J)	.	.	.	.	.	.	.	.	.	.	.	.	8gg\J)	.
8C/	.	8C/yy	.	8e/	ła-	8r	.	8r	.	8e/L	.	.	8C/	8g/L	8r	.	8r	4ryy	.	8r	.	8r	8ee'\L	.
8r	.	8ryy	.	8cc\	-ski	8e 8c\	.	8a 8c/	.	8cc/J	.	.	8r	8cc/J	8C/	.	8cc 8a\	.	.	8ee 8cc\	.	8aa\	8ccc'\J	.
*	*	*	*	*	*	*	*	*	*	*	*	*	*	*	*	*	*v	*v	*	*	*	*	*	*
=25	=25	=25	=25	=25	=25	=25	=25	=25	=25	=25	=25	=25	=25	=25	=25	=25	=25	=25	=25	=25	=25	=25	=25
8D\	.	8D\yy	.	8b\	te	8r	.	8r	.	8b'/L	.	2ryy	8D\	8b/L	8r	.	8r	.	8r	.	8r	8bb'\L	.
8r	.	8ryy	.	8g/	nad	8d\	.	8g 8B/	.	8g'/J	.	.	8r	8g/J	8D\	.	8b 8g\	.	8dd 8b\	.	8gg\	8gg'\J	.
8D\	.	8D\yy	.	8dd\	ży-	8r	.	8r	.	8dd'/L	.	.	8D\	8dd/L	8r	.	8r	.	8r	.	8r	8ddd'\L	.
8r	.	8ryy	.	8f#/	-cie	8d 8A\	.	8f# 8c/	.	8f#'/J	.	.	8r	8f#/J	8D\	.	8a 8d\	.	8dd 8a\	.	8ff#\	8ff#'\J	.
=26	=26	=26	=26	=26	=26	=26	=26	=26	=26	=26	=26	=26	=26	=26	=26	=26	=26	=26	=26	=26	=26	=26	=26
!LO:TX:t=P:problem=mixed beam	!	!LO:TX:t=P:problem=mixed beam	!	!	!	!	!	!	!	!	!	!	!	!	!	!	!	!	!	!	!	!	!
8GG/L	.	8GG/Lyy	.	8a/	ce-	8r	.	8r	.	(8a/L	.	2ryy	8G\	(8a/L	8r	.	8r	.	8r	.	(8aa\L	(8aa\L	.
8G\J	.	8G\Jyy	.	8g/	-nię.	8d 8G\	.	8g 8B/	.	8g/J)	.	.	8r	8g/J)	8G\	.	8g 8B/	.	8dd 8b\	.	8gg\J)	8gg\J)	.
*	*	*	*	*	*	*	*	*	*	*	*	*	*	*	*	*	*	*	*	*	*	*8va	*
!	!	!	!	!	!	!	!	!	!	!	!	!	!	!	!	!	!	!	!	!	!	!LO:TX:a:t=Col V°.1°8va	!
4r	.	4ryy	.	4r	.	4r	.	4r	.	(16gg\LL	.	.	4r	4r	4r	.	4r	.	4r	.	(16gg\LL	(yy16ggg\LLyy	.
.	.	.	.	.	.	.	.	.	.	16ff#\	.	.	.	.	.	.	.	.	.	.	16ff#\	16fff#\yy	.
.	.	.	.	.	.	.	.	.	.	16ee\	.	.	.	.	.	.	.	.	.	.	16ee\	16eee\yy	.
.	.	.	.	.	.	.	.	.	.	16dd\JJ)	.	.	.	.	.	.	.	.	.	.	16dd\JJ	16ddd\JJ)yy	.
=27	=27	=27	=27	=27	=27	=27	=27	=27	=27	=27	=27	=27	=27	=27	=27	=27	=27	=27	=27	=27	=27	=27	=27
8C^/L	.	8C^/Lyy	.	2r	.	8eL 8c^<\	.	8aL 8c/	.	8cc'^<\L	.	2ryy	8C/L	8a^/L	8C^/L	.	8aL 8c\	.	8ccL 8a\	.	8cc\L)	8ccc\Lyy	.
8C^/J	.	8C^/Jyy	.	.	.	8eJ 8c^<\	.	8aJ 8c/	.	8cc'^<\J	.	.	8C/J	8a^/J	8C^/J	.	8aJ 8c\	.	8ccJ 8a\	.	8cc\J	8ccc\Jyy	.
4r	.	4ryy	.	.	.	4r	.	4r	.	(16ff#\LL	.	.	4r	4r	4r	.	4r	.	4r	.	16ff#\LL	(yy16fff#\LLyy	.
.	.	.	.	.	.	.	.	.	.	16ee\	.	.	.	.	.	.	.	.	.	.	16ee\	16eee\yy	.
.	.	.	.	.	.	.	.	.	.	16dd\	.	.	.	.	.	.	.	.	.	.	16dd\	16ddd\yy	.
.	.	.	.	.	.	.	.	.	.	16cc\JJ)	.	.	.	.	.	.	.	.	.	.	16cc\JJ	16ccc\JJ)yy	.
=28	=28	=28	=28	=28	=28	=28	=28	=28	=28	=28	=28	=28	=28	=28	=28	=28	=28	=28	=28	=28	=28	=28	=28
8D^\L	.	8D^\Lyy	.	2r	.	8d\L	.	8gL 8B/	.	8b'^<\L	.	2ryy	8D\L	8b\L	8D\L	.	8gL 8B/	.	8bL 8g/	.	8b\L	8bb\Lyy	.
8D^\J	.	8D^\Jyy	.	.	.	8d\J	.	8gJ 8B/	.	8b'^<\J	.	.	8D\J	8b\J	8D\J	.	8gJ 8B/	.	8bJ 8g/	.	8b\J	8bb\Jyy	.
4r	.	4ryy	.	.	.	4r	.	4r	.	(16ee\LL	.	.	4r	4r	4r	.	4r	.	4r	.	(16ee\LL	(yy16eee\LLyy	.
.	.	.	.	.	.	.	.	.	.	16dd\	.	.	.	.	.	.	.	.	.	.	16dd\	16ddd\yy	.
.	.	.	.	.	.	.	.	.	.	16cc\	.	.	.	.	.	.	.	.	.	.	16cc\	16ccc\yy	.
.	.	.	.	.	.	.	.	.	.	16b\JJ)	.	.	.	.	.	.	.	.	.	.	16b\JJ)	16bb\JJ)yy	.
*	*	*	*	*	*	*	*	*	*	*	*	*	*	*	*	*	*	*	*	*	*	*X8va	*
!!LO:PB:g=original
=29	=29	=29	=29	=29	=29	=29	=29	=29	=29	=29	=29	=29	=29	=29	=29	=29	=29	=29	=29	=29	=29	=29	=29
8D^<\L	.	8D^<\Lyy	.	2r	.	8d\L	.	8f#L 8c'/	.	8a^/L	.	2ryy	8D\L	8a/L	8D\L	.	8aL 8d^<\	.	8aL 8f#^/	.	8a/L	8aa'^<\L	.
8D^<\J	.	8D^<\Jyy	.	.	.	8d\J	.	8f#J 8c'/	.	8a^/J	.	.	8D\J	8a/J	8D\J	.	8aJ 8d^<\	.	8aJ 8f#^/	.	8a/J	8aa'^<\J	.
4D\	.	4D\yy	.	.	.	4d 4A\	.	4f# 4c'/	.	16dd\LL	.	.	4D\	4f#/	8A\L	.	4a 4d/	.	(16dd\LL	.	(16dd\LL	(16ddd\LL	.
.	.	.	.	.	.	.	.	.	.	16cc\	.	.	.	.	.	.	.	.	16cc\	.	16cc\	16ccc\	.
.	.	.	.	.	.	.	.	.	.	16b\	.	.	.	.	8c\J	.	.	.	16b\	.	16b\	16bb\	.
.	.	.	.	.	.	.	.	.	.	16a\JJ	.	.	.	.	.	.	.	.	16a\JJ)	.	16a\JJ	16aa\JJ)	.
=30	=30	=30	=30	=30	=30	=30	=30	=30	=30	=30	=30	=30	=30	=30	=30	=30	=30	=30	=30	=30	=30	=30	=30
8G\	.	8G\yy	.	2r;	.	8d 8G\	.	8g 8B/	.	8g/	.	2ryy	8G\	8g/	8B\	.	8g 8d/	.	8g/	.	8g/)	8gg\	.
!	!	!	!	!	!	!	!	!	!	!LO:TX:b:i:t=sec	!	!	!	!	!	!	!	!	!	!	!	!	!
8r	.	8ryy	.	.	.	8r	.	8r	.	8r	.	.	8r	8r	8r	.	8r	.	8r	.	8r	8r	.
8GG/	.	8GG/yy	.	.	.	8g 8B\	.	8b 8d/	.	8gg 8b 8d\	.	.	8GG/	8g/	8G\	.	8g 8B/	.	8dd 8b\	.	8gg\	8ggg\	.
8r;	.	8r;yy	.	.	.	8r;	.	8r;	.	8r;	.	.	8r;	8r;	8r;	.	8r;	.	8r;	.	8r;	8r;	.
==	==	==	==	==	==	==	==	==	==	==	==	==	==	==	==	==	==	==	==	==	==	==	==
*-	*-	*-	*-	*-	*-	*-	*-	*-	*-	*-	*-	*-	*-	*-	*-	*-	*-	*-	*-	*-	*-	*-	*-
!!!system-decoration: [{s1,s2}s3,s4,s5,s6,s7,s8{g1}s11,s12,s13,s14]
!!!RDF**kern: > = above
!!!RDF**kern: < = below
!!!ENC: Marta Lawrence
!!!END: 2021-05-11
!!!ENC: Anastazja Marusiak
!!!END: 2021-04-28
!!!YEC: Copyright 2022 Narodowy Instytut Fryderyka Chopina (https://polishscores.org)
!!!YEM: Licence CC BY 4.0 (https://creativecommons.org/licenses/by/4.0)
